X:1
T:Marching on to Victory
T:Marching on to Victory
T:William James Kirkpatrick
T:Jonathan Dungan, 1889
T:Public Domain Courtesy of the Cyber Hymnal™
T:Public Domain Courtesy of the Cyber Hymnal™
C:William James Kirkpatrick
Z:Public Domain
Z:Courtesy of the Cyber Hymnal™
%%score ( 1 2 ) ( 3 4 )
L:1/8
Q:1/4=88
M:4/4
K:Db
V:1 treble 
V:2 treble 
V:3 bass 
V:4 bass 
V:1
 [DF][DF]>[EG] | [FA]4- [FA]>[Fd] [DF]>[GB] | [FA]4- [FA]>[Fd] [Ec]>[Fd] | %3
w: 1.~In joy- ful|bands * we’re march- ing|on, * True, faith- ful|
w: 2.~Thy king- dom|come, * O Lord, we|pray, * The world from|
w: 3.~The Gos- pel|ban- * ner soon shall|wave * O’er ev- ery|
w: 4.~Come, let us|join * the glad re-|frain, * That glor- ious|
w: 5.~And when the|day * at last is|won, * We’ll join the|
 [Ge]4- [Ge]>[Ec] [CA]>[EG] | [DF]4- [DF]>[DF] [DF]>[EG] | [FA]4- [FA]>[Fd] [DF]>[GB] | %6
w: sol- * diers let us|be; * A bet- ter|day * be- gins to|
w: Sa- * tan’s bond- age|free; * May truth and|right * soon win the|
w: land, * on ev- ery|sea; * So on- ward|press, * ye true and|
w: day * the world shall|see; * Ho- san- na!|swell * the joy- ful|
w: gen- * eral ju- bi-|lee; * All glo- ry|give * to God’s dear|
 [FA]4- [FA]>[Fd] [Ec]>[Fd] | [Ge]4- e>A B>c | d4- !fermata![Fd] || %9
w: dawn; * We’re march- ing|on * to vic- to-|ry! *|
w: day; * We’re march- ing|on * to vic- to-|ry! *|
w: brave; * We’re march- ing|on * to vic- to-|ry! We’re|
w: strain; * We’re march- ing|on * to vic- to-|ry! *|
w: Son; * We’re march- ing|on * to vic- to-|ry! *|
"^Refrain" [FA] (3([FA][GB])[=DF] | [EG]4- [EG]>[EG] (3(Gc)[GB] | [FA]4- [FA]>[FA] (3(Ad)[Ac] | %12
w: |||
w: |||
w: * march- * ing|on, * we’re march- * ing|on, * We’re march- * ing|
w: |||
w: |||
 [GB]4- [GB]>[Gd] [=Gc]>[Gd] | [Ge]4- [Ge]>A A>A | [Af]4- [Af]>[Ge] [Fd]>[Ec] | %15
w: |||
w: |||
w: on * to vic- to-|ry; * A bet- ter|day * be- gins to|
w: |||
w: |||
 [Ge]4- !fermata![Ge]2 [Gd]>[GB] | [FA]>[FA] (d>dc>c [Af]>)[Ge] | d4- !fermata![Fd] |] %18
w: |||
w: |||
w: dawn; * We are|march- ing on * * * * to|vic- ry!|
w: |||
w: |||
V:2
 x3 | x8 | x8 | x8 | x8 | x8 | x8 | x4 G2 G2 | F2 G2 x || x3 | x6 E2 | x6 F2 | x8 | x11/2 A/ A>A | %14
 x8 | x8 | x2 A2- A2- x2 | F2 G2 x |] %18
V:3
 z3 | z2 ([D,D]2 [D,D]>)[D,A,] [D,A,]>[D,D] | ([D,D]2 [D,D]2 [D,D]3/2) z/ z2 | %3
w: |~ * ~ ~ ~|~ * *|
 z2 ([A,C]2 [A,C]>)A, [A,,A,]>[A,,A,] | ([D,A,]2 [D,A,]2 [D,A,]3/2) z/ z2 | %5
w: ~ * ~ ~ ~|~ * *|
 z2 ([D,D]2 [D,D]>)[D,A,] [D,A,]>[D,D] | ([D,D]2 [D,D]2 [D,D]3/2) z/ z2 | %7
w: ~ * ~ ~ ~|~ * *|
 z2 [A,C]2 [A,C]>[A,C] [A,C]>A, | ([D,A,]2 [D,B,]2 [D,A,]) || z3 | %10
w: ~ ~ ~ ~ ~|~ * *||
 z3/2 [A,,C]/ [A,,C]>[A,,C] [A,,C]3/2 z/ z2 | z3/2 [D,D]/ [D,D]>[D,D] [D,D]3/2 z/ z2 | %12
w: ~ ~ ~ ~|~ ~ ~ ~|
 z3/2 [G,D]/ [G,D]>[G,D] [G,D]>[G,B,] [E,B,]>[E,B,] | [A,C]>[A,C] [A,C]>[A,C] [A,C]3/2 z/ z2 | %14
w: ~ We’re march- ing on to vic-|tory, to vic- to- ry;|
 z3/2 [D,D]/ [D,D]>[D,D] [D,D]3/2 z/ z2 | %15
w: ~ ~ ~ ~|
 z3/2 [G,B,]/ [G,B,]>[G,B,] !fermata![G,B,]2 [G,B,]>[G,D] | %16
w: ~ ~ ~ ~ We are|
 [A,D]>[A,D] [A,F]>[A,F] [A,E]>[A,E] [A,D]>[A,C] | D>A, B,>B, [D,A,] |] %18
w: march- ing, march- ing on to vic- to-|ry! (to vic- to- ry!)|
V:4
 x3 | x8 | x8 | x11/2 A,/ x2 | x8 | x8 | x8 | x15/2 A,/ | x5 || x3 | x8 | x8 | x8 | x8 | x8 | x8 | %16
 x8 | D,4- x |] %18

